public/pictos/montparnasse.svg

<svg xmlns="http://www.w3.org/2000/svg" xml:space="preserve" width="103.143" height="397.043" viewBox="0 0 27.29 105.051"><path d="M110.22 86.12c2.551-2.312 6.305-3.384 9.752-3.384.337 0 .512.47.834.566 1.22.362 5.034 1.044 6.26.92.864-.087 5.334-1.576 5.977-.991.265.24-.243 1.457-.315 1.726-.364 1.372-.392 3.622-.141 5.04.207 1.174.297 2.244.283 2.195-.056-.201-.073-.224-.157-.425" style="opacity:1;fill:none;stroke:#000;stroke-width:1.394;stroke-linecap:round;stroke-linejoin:round;stroke-dasharray:none;paint-order:stroke markers fill" transform="translate(-107.873 -80.178)"/><path d="M119.406 83.458c-.142.552-.313 1.097-.425 1.655-.298 1.49.095 3.512.315 4.997.057.389.217 2.379.031 1.714" style="opacity:1;fill:none;stroke:#000;stroke-width:1.394;stroke-linecap:round;stroke-linejoin:round;stroke-dasharray:none;paint-order:stroke markers fill" transform="translate(-107.873 -80.178)"/><path d="M109.969 86.643c.015.505.04 1.01.047 1.515.022 1.451.104 2.885.157 4.317.02.549-.043 1.083-.11 1.628-.015.12-.126.46-.126.339 0-.304.178-.582.252-.877 2.264-.922 4.442-2.252 6.952-2.252.78 0 2.399-.53 2.312-.141m-9.909 3.61c-.83 8.532.352 17.223-.203 25.791-.197 3.038-.057 6.114-.11 9.159-.168 9.513.082 18.98.754 28.48.372 5.267-.193 10.416-.471 15.656-.088 1.655-.44 3.136-.708 4.756-.085.513-.095 1.037-.095 1.556 0 .147-.029.585-.015.44.054-.591 0-1.019-.126-1.6m10.27-86.857c-.182 7.006-.175 14.008-.518 21.006-.335 6.819-.12 13.592-.032 20.412.047 3.61-.387 7.262-.157 10.858.12 1.87.657 3.676.754 5.549.144 2.794.008 5.603.267 8.38.336 3.589.731 7.47.504 11.07-.207 3.275-.834 6.541-.834 9.808 0 .414-.128-.827-.3-1.203m15.179-85.371c-.018 1.863-.332 3.735-.377 5.592-.043 1.82.392 3.671.392 5.506 0 3.646-.167 7.28.032 10.914.127 2.331.016 4.714.016 7.05 0 1.262.247 2.522.267 3.779.064 3.921.115 7.891.063 11.819-.016 1.169-.201 2.323-.283 3.483-.122 1.731.045 3.494.078 5.223.063 3.286-.073 6.566-.015 9.852.094 5.367.88 10.507.472 15.925-.084 1.114.417 8.166-.378 8.889-.36.328-.087-.98-.236-1.443m-8.65-94.417c-.347 8.34-.792 16.665-.691 25.028.043 3.61-.109 7.172-.173 10.771-.05 2.781.183 5.566.126 8.352-.034 1.624-.274 3.242-.252 4.87.083 6.28.574 12.603.77 18.882.032 1.042-.203 2.092-.126 3.129.164 2.212.566 4.371.566 6.61 0 3.464-.201 6.875-.031 10.347.039.805.204 6.815-.142 7.234-.34.413 0-.939-.44-2.391m2.769-92.803c-.239 1.88-.473 3.715-.52 5.606-.063 2.604.563 5.119.629 7.7.112 4.435-.655 8.829-.282 13.263.821 9.775-.308 19.467-.85 29.217-.23 4.137.21 8.206.456 12.316.14 2.314-.162 4.751-.22 7.076-.098 3.927.742 7.823.677 11.75-.015.865-.315 1.7-.315 2.576 0 1.247.372 6.334.833 7.247.256.508-.244-1.12-.471-1.642m-15.288-95.774c2.079-2.543 5.097-3.043 8.178-3.143.22-.007 1.186-.303 1.305-.142.755 1.03 2.747.891 3.932 1.02 1.316.144 2.947-.533 4.216-.254.288.063.4 1.256.848 1.429M110.19 97.061c2.12-1.33 4.477-3.13 6.92-1.726m-7.393 5.717c1.916-1.437 4.54-2.398 6.92-1.796m-5.85 4.471c.528-.338 7.091-3.015 6.653-1.217m-7.314 4.757c2.206-1.261 5.112-1.397 7.362-1.288m-7.063 4.473c.735-.627 6.103-2.201 5.93-1.034" style="opacity:1;fill:none;stroke:#000;stroke-width:1.394;stroke-linecap:round;stroke-linejoin:round;stroke-dasharray:none;paint-order:stroke markers fill" transform="translate(-107.873 -80.178)"/><path d="M109.764 114.203c-1.938-.633 8.917-1.183 7.031-.907m-6.968 4.12c1.835-.102 7.057-2.058 8.605-.665m-7.692 4.784c.805-.533 6.663-2.613 6.512-1.387m-6.842 5.026c2.76-.589 6-1.36 8.618-1.36m-8.965 4.955c2.343-.79 4.695-.892 7.126-.977m-6.339 4.247c2.24.052 4.765-.517 6.905-.34m-7.125 3.935c-.154-.752 8.214-1.942 7.22-1.047m-6.89 4.387c.76-.377 1.487-.83 2.28-1.131.517-.197 5.07-1.015 4.704-.355m-7.928 5.535c2.476-1.159 1.119-.772 2.658-.99.432-.062 5.906-.556 5.914-.538.04.089-.136.14-.203.211m-8.4 5.605c1.619-.648 6.96-2.98 8.463-1.244m-7.582 4.103c1.43-.332 6.767-1.354 7.942.058m-9.028 3.426c2.725-1.543 6.14-.268 8.76-.227m-8.005 3.085c2.336-.12 4.848-.522 7.189-.127m-6.591 3.129c2.49-.94 5.105-.11 7.644-.538m-7.896 3.284c2.494-1.002 5.408 1.189 7.785.113m-7.973 3.427c.786.013 1.573.017 2.359.04 1.377.043 2.757.183 4.137.1.393-.024 1.503-.01 1.164-.212-.085-.051-.2 0-.299 0m-7.283 3.652c2.858-.013 5.71-.24 8.556-.468m-8.571 3.228c2.305.63 4.989.86 7.361.311m-8.416 3.072c3.097.216 6.13 1.249 9.249.722m-7.832-84.493c1.783-.527 5.352-2.985 7.015-1.373m-6.795-.523c2.034-1.893 4.373-1.48 6.858-1.585m-7.771-.214c1.436-.312 7.527-2.993 8.73-1.513m-7.424-.708c1.887-1.369 4.474-1.958 6.794-1.43m2.061 7.346c1.703.677 3.332.583 5.096.51.567-.024 1.286.268 1.87.326 1.728.17 3.418-.037 4.72-.708m-21.832 87.436c1.796.316 3.613.734 5.443.893.444.039 1.783-.057 1.337-.057-.366 0-.716.179-.944.453m-6.59 1.331c.645.127 1.291.248 1.935.382 1.115.232 1.977.924 3.036 1.231.852.248 1.735.245 2.595.425.364.076 2.508.255 1.902.325" style="opacity:1;fill:none;stroke:#000;stroke-width:1.394;stroke-linecap:round;stroke-linejoin:round;stroke-dasharray:none;paint-order:stroke markers fill" transform="translate(-107.873 -80.178)"/><path d="M118.87 180.365c.55.165-.134 4.678.693 4.118.892-.17 1.782-.343 2.674-.509 1.555-.288 2.875.036 4.405.185 1.984.193 5.279.255 7.124-.355.139-.046-.034-2.078-.032-2.207.022-1.248.638-1.765-.283-2.691" style="opacity:1;fill:none;stroke:#000;stroke-width:1.394;stroke-linecap:round;stroke-linejoin:round;stroke-dasharray:none;paint-order:stroke markers fill" transform="translate(-107.873 -80.178)"/></svg>

<svg xmlns="http://www.w3.org/2000/svg" xml:space="preserve" width="103.143" height="397.043" viewBox="0 0 27.29 105.051"><path d="M110.22 86.12c2.551-2.312 6.305-3.384 9.752-3.384.337 0 .512.47.834.566 1.22.362 5.034 1.044 6.26.92.864-.087 5.334-1.576 5.977-.991.265.24-.243 1.457-.315 1.726-.364 1.372-.392 3.622-.141 5.04.207 1.174.297 2.244.283 2.195-.056-.201-.073-.224-.157-.425" style="opacity:1;fill:none;stroke:#000;stroke-width:1.394;stroke-linecap:round;stroke-linejoin:round;stroke-dasharray:none;paint-order:stroke markers fill" transform="translate(-107.873 -80.178)"/><path d="M119.406 83.458c-.142.552-.313 1.097-.425 1.655-.298 1.49.095 3.512.315 4.997.057.389.217 2.379.031 1.714" style="opacity:1;fill:none;stroke:#000;stroke-width:1.394;stroke-linecap:round;stroke-linejoin:round;stroke-dasharray:none;paint-order:stroke markers fill" transform="translate(-107.873 -80.178)"/><path d="M109.969 86.643c.015.505.04 1.01.047 1.515.022 1.451.104 2.885.157 4.317.02.549-.043 1.083-.11 1.628-.015.12-.126.46-.126.339 0-.304.178-.582.252-.877 2.264-.922 4.442-2.252 6.952-2.252.78 0 2.399-.53 2.312-.141M109.544 94.782c-.83 8.532.352 17.223-.203 25.791-.197 3.038-.057 6.114-.11 9.159-.168 9.513.082 18.98.754 28.48.372 5.267-.193 10.416-.471 15.656-.088 1.655-.44 3.136-.708 4.756-.085.513-.095 1.037-.095 1.556 0 .147-.029.585-.015.44.054-.591 0-1.019-.126-1.6M118.84 92.163c-.182 7.006-.175 14.008-.518 21.006-.335 6.819-.12 13.592-.032 20.412.047 3.61-.387 7.262-.157 10.858.12 1.87.657 3.676.754 5.549.144 2.794.008 5.603.267 8.38.336 3.589.731 7.47.504 11.07-.207 3.275-.834 6.541-.834 9.808 0 .414-.128-.827-.3-1.203M133.703 92.672c-.018 1.863-.332 3.735-.377 5.592-.043 1.82.392 3.671.392 5.506 0 3.646-.167 7.28.032 10.914.127 2.331.016 4.714.016 7.05 0 1.262.247 2.522.267 3.779.064 3.921.115 7.891.063 11.819-.016 1.169-.201 2.323-.283 3.483-.122 1.731.045 3.494.078 5.223.063 3.286-.073 6.566-.015 9.852.094 5.367.88 10.507.472 15.925-.084 1.114.417 8.166-.378 8.889-.36.328-.087-.98-.236-1.443M125.084 84.844c-.347 8.34-.792 16.665-.691 25.028.043 3.61-.109 7.172-.173 10.771-.05 2.781.183 5.566.126 8.352-.034 1.624-.274 3.242-.252 4.87.083 6.28.574 12.603.77 18.882.032 1.042-.203 2.092-.126 3.129.164 2.212.566 4.371.566 6.61 0 3.464-.201 6.875-.031 10.347.039.805.204 6.815-.142 7.234-.34.413 0-.939-.44-2.391M127.46 84.873c-.239 1.88-.473 3.715-.52 5.606-.063 2.604.563 5.119.629 7.7.112 4.435-.655 8.829-.282 13.263.821 9.775-.308 19.467-.85 29.217-.23 4.137.21 8.206.456 12.316.14 2.314-.162 4.751-.22 7.076-.098 3.927.742 7.823.677 11.75-.015.865-.315 1.7-.315 2.576 0 1.247.372 6.334.833 7.247.256.508-.244-1.12-.471-1.642M112.109 84.208c2.079-2.543 5.097-3.043 8.178-3.143.22-.007 1.186-.303 1.305-.142.755 1.03 2.747.891 3.932 1.02 1.316.144 2.947-.533 4.216-.254.288.063.4 1.256.848 1.429M110.19 97.061c2.12-1.33 4.477-3.13 6.92-1.726M109.717 101.052c1.916-1.437 4.54-2.398 6.92-1.796M110.787 103.727c.528-.338 7.091-3.015 6.653-1.217M110.126 107.267c2.206-1.261 5.112-1.397 7.362-1.288M110.425 110.452c.735-.627 6.103-2.201 5.93-1.034" style="opacity:1;fill:none;stroke:#000;stroke-width:1.394;stroke-linecap:round;stroke-linejoin:round;stroke-dasharray:none;paint-order:stroke markers fill" transform="translate(-107.873 -80.178)"/><path d="M109.764 114.203c-1.938-.633 8.917-1.183 7.031-.907M109.827 117.416c1.835-.102 7.057-2.058 8.605-.665M110.74 121.535c.805-.533 6.663-2.613 6.512-1.387M110.41 125.174c2.76-.589 6-1.36 8.618-1.36M110.063 128.769c2.343-.79 4.695-.892 7.126-.977M110.85 132.039c2.24.052 4.765-.517 6.905-.34M110.63 135.634c-.154-.752 8.214-1.942 7.22-1.047M110.96 138.974c.76-.377 1.487-.83 2.28-1.131.517-.197 5.07-1.015 4.704-.355M110.016 143.023c2.476-1.159 1.119-.772 2.658-.99.432-.062 5.906-.556 5.914-.538.04.089-.136.14-.203.211M109.985 147.311c1.619-.648 6.96-2.98 8.463-1.244M110.866 150.17c1.43-.332 6.767-1.354 7.942.058M109.78 153.654c2.725-1.543 6.14-.268 8.76-.227M110.535 156.512c2.336-.12 4.848-.522 7.189-.127M111.133 159.514c2.49-.94 5.105-.11 7.644-.538M110.881 162.26c2.494-1.002 5.408 1.189 7.785.113M110.693 165.8c.786.013 1.573.017 2.359.04 1.377.043 2.757.183 4.137.1.393-.024 1.503-.01 1.164-.212-.085-.051-.2 0-.299 0M110.771 169.38c2.858-.013 5.71-.24 8.556-.468M110.756 172.14c2.305.63 4.989.86 7.361.311M109.701 175.523c3.097.216 6.13 1.249 9.249.722M111.118 91.752c1.783-.527 5.352-2.985 7.015-1.373M111.338 89.856c2.034-1.893 4.373-1.48 6.858-1.585M110.425 88.057c1.436-.312 7.527-2.993 8.73-1.513M111.731 85.836c1.887-1.369 4.474-1.958 6.794-1.43M120.586 91.752c1.703.677 3.332.583 5.096.51.567-.024 1.286.268 1.87.326 1.728.17 3.418-.037 4.72-.708M110.44 179.316c1.796.316 3.613.734 5.443.893.444.039 1.783-.057 1.337-.057-.366 0-.716.179-.944.453M109.686 181.936c.645.127 1.291.248 1.935.382 1.115.232 1.977.924 3.036 1.231.852.248 1.735.245 2.595.425.364.076 2.508.255 1.902.325" style="opacity:1;fill:none;stroke:#000;stroke-width:1.394;stroke-linecap:round;stroke-linejoin:round;stroke-dasharray:none;paint-order:stroke markers fill" transform="translate(-107.873 -80.178)"/><path d="M118.87 180.365c.55.165-.134 4.678.693 4.118.892-.17 1.782-.343 2.674-.509 1.555-.288 2.875.036 4.405.185 1.984.193 5.279.255 7.124-.355.139-.046-.034-2.078-.032-2.207.022-1.248.638-1.765-.283-2.691" style="opacity:1;fill:none;stroke:#000;stroke-width:1.394;stroke-linecap:round;stroke-linejoin:round;stroke-dasharray:none;paint-order:stroke markers fill" transform="translate(-107.873 -80.178)"/></svg>
